X:1
T:Title
%%score { ( 1 4 ) | ( 2 3 ) }
L:1/8
Q:1/4=126
M:6/4
K:Db
V:1 treble nm="Grand Piano"
V:4 treble 
V:2 bass 
V:3 bass 
V:1
 [FA]2 [FB]2 [Fc]2 [Fd]2 [Fc]2 [B,FB]2 | [DFA]2 [A,D]2 [CE]2 [A,DF]6 | %2
w: Mrs.~C.~H.~Morris * * * * *||
 [CEA]2 [A,CE]2 [A,DF]2 [A,EG]3 [CEA] [EGc]2 | [DGB]2 [DFA]2 [A,EG]2 [A,DF]6 | %4
w: ||
 [FA]2 [FB]2 [Fc]2 [Fd]2 [Fc]2 [FB]2 | [FA]2 [FB]2 [DF]2 [FA]6 | [EA]2 [EA]2 B2 c2 [Ee]2 [Fd]2 | %7
w: |||
 c3 d B2 .[A,CEA]6 | [Fd]3 c e2 [Fd]2 c2 [B,GB]2 | [DFA]2 [DF]2 [DGB]2 [DFA]6 | %10
w: |||
 [EG]3 F G2 [Ec]2 [Fd]2 [Ge]2 | d4- [Gd-]2 [Fd]6 | [Af]3 [Ge] [Fd]2 [Fd]2 [Gc]2 [Ad]2 | %13
w: |||
 e3 B B2 B6 | A2 d2 [Ad]2 [=Gd]4 c2 | [Fd]12 |] %16
w: |||
V:2
 [D,D]2 [D,D]2 [D,D]2 [D,A,]2 [D,A,]2 D,2 | D,2 F,2 A,2 D,6 | A,,2 A,,2 A,,2 A,,3 A,, A,,2 | %3
 D,2 D,2 D,2 D,6 | [D,D]2 [D,D]2 [D,D]2 [D,A,]2 [D,A,]2 [D,B,]2 | [D,D]2 [D,D]2 [D,A,]2 [D,D]6 | %6
 [C,A,]2 [C,A,]2 [E,=G,E]2 [A,E]2 [C,A,]2 [D,A,]2 | [E,A,E]3 [E,B,E] [E,DE]2 z2 G4 | %8
 z2 z[K:treble] E G2[K:bass] z2 A2 D,2 | z2 A,2 D,2 D,6 | z2 z =D E2 [A,,A,]4 [C,A,]2 | %11
 [D,A,]4 D,2 .[D,A,]6 | [D,D]3 [D,A,] [D,A,]2 [D,A,]2 [E,A,]2 [F,D]2 | %13
 [G,B,G]3 [G,DG] [G,DG]2 [G,DG]6 | [A,DF]2 [A,DF]2[K:bass] [F,D]2 [E,E]4 [A,G]2 | [D,A,]12 |] %16
V:3
 x12 | x12 | x12 | x12 | x12 | x12 | x12 | z6 A,,6 | [D,A,]6[K:treble][K:bass] .[D,A,]6 | .D,6 z6 | %10
 A,,6 z6 | x12 | x12 | x12 | x4[K:bass] x8 | x12 |] %16
V:4
 x12 | x12 | x12 | x12 | x12 | x12 | x12 | x12 | x12 | x12 | C6 z6 | .F6 z6 | x12 | x12 | x12 | %15
 x12 |] %16

